X: 46
T: Staten Island Hornpipe
N: page 15
N: heptatonic
S: Bernie Waugh
R: Hornpipe
M: 4/4
L: 1/8
K: D
|:AG|\
"D"FDFG A2 A2|dfed dcBA|"G"B2 GB "D" A2 FA|"Em"G2 E2 E2 "A7" AG| "D"FDFG A2 A2|
 dfed dcBA|d2 d2 "A7"efge|"D"f2d2d2::fg|\
"D"a2fa "A7"g2 eg|"D"f2 df "A7"ed A2|
 "C"=c2c2efge|=c2 c2 efge|"D"a2fa "A7"g2eg|\
"D"f2df "A7" ecA2|"G"d2 d2 "A7" efge|"D"f2d2d2:|
